X: 41303
T: Tune For Kieran
R: reel
M: 4/4
K: Dminor
D2dc G3D-|DEcF FGEC|A,3D B,3F|DB3 AGEF|
D2dc G3D-|DEcF FGEC|D2DA B3 G|AGEF D2DD|
Dddc G2DE-|~E2cF FGEC|A,3D B,FA2|DB2 A2 GEF|
Dddc G2DE-|~E2cF FGEC|D2DA AB2G|AGEF D-~D3||
D~E3- E2cE|E~F3c4|D~E3- E2cE|EDEG AGFE|
D~E3- E2cE|E~F3c4|D~E3- E2cE|AGEF D3D|
D~E3- E2cE|E~F3c4|D~E3- E2cE|EDEG A2GE|
D~E3- E2cE|E~F3c4|DBAD AGEG|AGEF D2DD||

